assets/ai/ai-pubpeer-square.svg

<svg xmlns="http://www.w3.org/2000/svg" width="100%" height="100%" viewBox="-75.52 -43.52 599.04 599.04"><path d="M 48 32 C 21.5 32 0 53.5 0 80 L 0 432 C 0 458.5 21.5 480 48 480 L 400 480 C 426.5 480 448 458.5 448 432 L 448 80 C 448 53.5 426.5 32 400 32 L 48 32 z M 305.17773 96 C 319.41736 96 331.0293 107.61194 331.0293 121.85156 C 331.0293 134.9623 321.17718 145.82683 308.50195 147.4707 L 308.50195 246.04883 C 321.17718 247.69212 331.0293 258.55333 331.0293 271.66406 C 331.0293 285.90369 319.41736 297.51953 305.17773 297.51953 C 292.06699 297.51953 281.20246 287.6641 279.55859 274.98828 L 215.57422 274.98828 L 158.35742 369.54102 C 164.60773 374.2674 168.67578 381.73909 168.67578 390.14844 C 168.67578 404.38686 157.06069 416 142.82227 416 C 128.58387 416 116.97068 404.38686 116.9707 390.14844 C 116.9707 377.03881 126.82363 366.17667 139.49805 364.5332 L 139.49805 196.21094 C 127.50077 193.97947 118.35938 183.43512 118.35938 170.80859 C 118.35938 156.56896 129.97717 144.95703 144.2168 144.95703 C 154.79901 144.95703 163.91558 151.3768 167.9082 160.51562 L 279.68359 125.97266 C 279.46584 124.62674 279.32031 123.25725 279.32031 121.85156 C 279.32031 107.61194 290.93808 96 305.17773 96 z M 305.17773 102.64844 C 294.531 102.64844 285.96875 111.20483 285.96875 121.85156 C 285.96875 132.4983 294.53098 141.06055 305.17773 141.06055 C 315.82447 141.06055 324.38086 132.4983 324.38086 121.85156 C 324.38086 111.20483 315.82447 102.64844 305.17773 102.64844 z M 281.57617 132.34375 L 169.74023 166.9043 C 169.93574 168.18154 170.06836 169.47815 170.06836 170.80859 C 170.06836 184.39642 159.48688 195.56761 146.14648 196.56445 L 146.14648 364.5332 C 148.39451 364.8247 150.557 365.39667 152.58789 366.23047 L 288.52734 141.58789 C 285.56511 139.08358 283.17857 135.92657 281.57617 132.34375 z M 294.11914 145.18164 L 219.5957 268.33984 L 279.55859 268.33984 C 281.06092 256.75603 290.2692 247.55063 301.85352 246.04883 L 301.85352 147.4707 C 299.11743 147.11587 296.52111 146.32721 294.11914 145.18164 z M 144.2168 151.60352 C 133.57005 151.60352 125.00781 160.16183 125.00781 170.80859 C 125.00781 181.45533 133.57005 190.01758 144.2168 190.01758 C 154.86354 190.01758 163.41992 181.45534 163.41992 170.80859 C 163.41992 160.16183 154.86354 151.60352 144.2168 151.60352 z M 305.17773 252.45898 C 294.53098 252.45898 285.96875 261.01731 285.96875 271.66406 C 285.96875 282.31079 294.53098 290.87305 305.17773 290.87305 C 315.82447 290.87305 324.38086 282.31079 324.38086 271.66406 C 324.38086 261.01731 315.82447 252.45898 305.17773 252.45898 z M 142.82227 370.94336 C 132.17677 370.94336 123.61914 379.50292 123.61914 390.14844 C 123.61912 400.79396 132.17675 409.35156 142.82227 409.35156 C 153.4678 409.35156 162.02734 400.79396 162.02734 390.14844 C 162.02734 379.50292 153.4678 370.94336 142.82227 370.94336 z"/></svg>

<svg xmlns="http://www.w3.org/2000/svg" width="100%" height="100%" viewBox="-75.52 -43.52 599.04 599.04"><path d="M48 32C21.5 32 0 53.5 0 80v352c0 26.5 21.5 48 48 48h352c26.5 0 48-21.5 48-48V80c0-26.5-21.5-48-48-48H48zm257.178 64c14.24 0 25.851 11.612 25.851 25.852 0 13.11-9.852 23.975-22.527 25.619v98.578c12.675 1.643 22.527 12.504 22.527 25.615 0 14.24-11.612 25.856-25.851 25.856-13.111 0-23.976-9.856-25.62-22.532h-63.984l-57.217 94.553c6.25 4.726 10.319 12.198 10.319 20.607 0 14.239-11.615 25.852-25.854 25.852-14.238 0-25.851-11.613-25.851-25.852 0-13.11 9.853-23.971 22.527-25.615V196.211c-11.997-2.232-21.139-12.776-21.139-25.402 0-14.24 11.618-25.852 25.858-25.852 10.582 0 19.699 6.42 23.691 15.559l111.776-34.543c-.218-1.346-.364-2.716-.364-4.121 0-14.24 11.618-25.852 25.858-25.852zm0 6.648a19.156 19.156 0 00-19.21 19.204 19.16 19.16 0 0019.21 19.209 19.156 19.156 0 0019.203-19.21 19.15 19.15 0 00-19.203-19.203zm-23.602 29.696l-111.836 34.56c.196 1.278.328 2.574.328 3.905 0 13.587-10.581 24.759-23.922 25.755v167.97a25.62 25.62 0 016.442 1.696l135.94-224.642a26.026 26.026 0 01-6.952-9.244zm12.543 12.838L219.596 268.34h59.963c1.502-11.584 10.71-20.79 22.295-22.291V147.47a25.58 25.58 0 01-7.735-2.29zm-149.902 6.422a19.157 19.157 0 00-19.21 19.205 19.16 19.16 0 0019.21 19.209 19.156 19.156 0 0019.203-19.21 19.152 19.152 0 00-19.203-19.204zm160.96 100.855a19.157 19.157 0 00-19.208 19.205 19.16 19.16 0 0019.209 19.209 19.156 19.156 0 0019.203-19.209 19.152 19.152 0 00-19.203-19.205zM142.823 370.943a19.154 19.154 0 00-19.203 19.205 19.152 19.152 0 0019.203 19.204 19.154 19.154 0 0019.205-19.204 19.156 19.156 0 00-19.205-19.205z"/></svg>
